src/pos-icons/mouse-variant-off.svg

<svg height="24" viewBox="0 0 24 24" width="24" xmlns="http://www.w3.org/2000/svg"><path d="m2 5.27 1.28-1.27 16.72 16.72-1.27 1.28-1.44-1.44c-.87 1.44-2.47 2.44-4.29 2.44a5 5 0 0 1 -5-5v-1.1c-2.28-.46-4-2.48-4-4.9v-3h1.73zm12 1.73h-4v-4.9c2.28.46 4 2.48 4 4.9m-6-4.9v4.08l-2.62-2.63c.69-.72 1.62-1.24 2.62-1.45m6 9.9v.17l-3.18-3.17h3.18zm-4 4.9v1.1a3 3 0 0 0 3 3c1.28 0 2.37-.8 2.8-1.93l-3.4-3.4c-.66.61-1.48 1.04-2.4 1.23m6-3.9a4 4 0 0 1 4-4h2l-1 1 1 1h-2a2 2 0 0 0 -2 2v3.18l-2-2z"/></svg>

<?xml version="1.0" encoding="UTF-8"?><!DOCTYPE svg PUBLIC "-//W3C//DTD SVG 1.1//EN" "http://www.w3.org/Graphics/SVG/1.1/DTD/svg11.dtd"><svg xmlns="http://www.w3.org/2000/svg" xmlns:xlink="http://www.w3.org/1999/xlink" version="1.1" id="mdi-mouse-variant-off" width="24" height="24" viewBox="0 0 24 24"><path d="M2,5.27L3.28,4L20,20.72L18.73,22L17.29,20.56C16.42,22 14.82,23 13,23A5,5 0 0,1 8,18V16.9C5.72,16.44 4,14.42 4,12V9H5.73L2,5.27M14,7H10V2.1C12.28,2.56 14,4.58 14,7M8,2.1V6.18L5.38,3.55C6.07,2.83 7,2.31 8,2.1M14,12V12.17L10.82,9H14V12M10,16.9V18A3,3 0 0,0 13,21C14.28,21 15.37,20.2 15.8,19.07L12.4,15.67C11.74,16.28 10.92,16.71 10,16.9M16,13A4,4 0 0,1 20,9H22L21,10L22,11H20A2,2 0 0,0 18,13V16.18L16,14.18V13Z" /></svg>
